src/images/avatars/avatar-11.svg

<svg fill="none" height="81" viewBox="0 0 52 81" width="52" xmlns="http://www.w3.org/2000/svg"><path d="m35.9125 38.8033c27.9-5.9 12.3-53-18.8-32.79998-23.69997-5.899999-16.999972 28.49998-6.8 31.19998 11.2 3 24.3 1.9 25.6 1.6z" fill="#666" stroke="#4d4d4d" stroke-linejoin="round" stroke-miterlimit="10" stroke-width="2"/><path d="m30.7124 61.5033v-14.5h-10.3v14.5c0 1.1-.9 2-2 2h-1.7c0 3.4 4.7 12.8 8.8 12.8s8.8-9.4 8.8-12.8h-1.6c-1.1 0-2-.9-2-2z" fill="#fcc5af" stroke="#4d4d4d" stroke-linejoin="round" stroke-miterlimit="10" stroke-width="2"/><path d="m29.6124 63.9033c-1.5 0-7.8-7.1-7.8-7.8.1-1.5-.1-.9-.1-.9l7.9.2s.2 8.5 0 8.5z" fill="#f99f7a" opacity=".5"/><path d="m8.11241 40.6033c2.15389 0 3.89999-1.7461 3.89999-3.9s-1.7461-3.9-3.89999-3.9c-2.15391 0-3.90001 1.7461-3.90001 3.9s1.7461 3.9 3.90001 3.9z" fill="#fcc5af" stroke="#4d4d4d" stroke-linejoin="round" stroke-miterlimit="10" stroke-width="2"/><path d="m42.9123 40.6033c2.1539 0 3.9-1.7461 3.9-3.9s-1.7461-3.9-3.9-3.9-3.9 1.7461-3.9 3.9 1.7461 3.9 3.9 3.9z" fill="#fcc5af" stroke="#4d4d4d" stroke-linejoin="round" stroke-miterlimit="10" stroke-width="2"/><path d="m26.5126 16.4033c-4.9 0-9.9-4.2-14.8-1.3-4.19997 2.4-3.69997 8.4-3.69997 22 0 12.5 9.29997 19 16.99997 19 8.8 0 18-6.5 18-20.7 0-5.7.2-8.4 0-11.5-4.3-1.1-11.6-7.5-16.5-7.5z" fill="#fcc5af" stroke="#4d4d4d" stroke-linejoin="round" stroke-miterlimit="10" stroke-width="2"/><path d="m24.3125 37.9033v1.7c0 .7.5 1.3 1.2 1.3h1.5" stroke="#4d4d4d" stroke-linecap="round" stroke-linejoin="round" stroke-miterlimit="10" stroke-width="2"/><path d="m22.3125 46.8033c2.4 1.2002 4.7 1.2002 7 0" stroke="#4d4d4d" stroke-linecap="round" stroke-linejoin="round" stroke-miterlimit="10" stroke-width="2"/><path d="m19.3125 32.7033c.8284 0 1.5-.6716 1.5-1.5 0-.8285-.6716-1.5001-1.5-1.5001s-1.5.6716-1.5 1.5001c0 .8284.6716 1.5 1.5 1.5z" fill="#4d4d4d"/><path d="m31.8125 32.7033c.8284 0 1.5-.6716 1.5-1.5 0-.8285-.6716-1.5001-1.5-1.5001s-1.5.6716-1.5 1.5001c0 .8284.6716 1.5 1.5 1.5z" fill="#4d4d4d"/><path d="m45.8125 70.2033c0-4.4-3.6-7.9999-8-7.9999l-7.8 1.3s-4.4 3.5999-4.4 15.3999c0-11.7-4.7-15.3999-4.7-15.3999l-7.6-1.3c-4.4 0-8 3.5999-8 7.9999v1.3c5.3 4.9 12.4 7.8 20.2 7.8 7.9 0 15-3 20.4-8v-1.1z" fill="#5c5c5c"/><path d="m45.8125 70.2033c0-4.4-3.6-7.9999-8-7.9999l-7.8 1.3s-4.4 3.5999-4.4 15.3999c0-11.7-4.7-15.3999-4.7-15.3999l-7.6-1.3c-4.4 0-8 3.5999-8 7.9999v1.3c5.3 4.9 12.4 7.8 20.2 7.8 7.9 0 15-3 20.4-8v-1.1z" fill="#fff"/><path d="m45.8125 70.2033c0-4.4-3.6-7.9999-8-7.9999l-7.8 1.3s-4.4 3.5999-4.4 15.3999c0-11.7-4.7-15.3999-4.7-15.3999l-7.6-1.3c-4.4 0-8 3.5999-8 7.9999v1.3c5.3 4.9 12.4 7.8 20.2 7.8 7.9 0 15-3 20.4-8v-1.1z" stroke="#4d4d4d" stroke-linejoin="round" stroke-miterlimit="10" stroke-width="2"/><path d="m37.8127 62.2034-2.6.4-3.7 16.0999c3.6-.7 6.9-2.1 9.8-4 .1-.1.3-.2.4-.3.2-.1.3-.2.5-.3s.4-.3.6-.4c1.1-.8 2.1-1.6 3-2.4v-1.1c0-4.3999-3.5-7.9999-8-7.9999z" fill="#d0c8c4" stroke="#4d4d4d" stroke-linejoin="round" stroke-miterlimit="10" stroke-width="2"/><path d="m13.2124 62.2034 2.6.4 3.7 16.0999c-3.6-.7-6.9-2.1-9.8-4-.1-.1-.3-.2-.4-.3-.2-.1-.3-.2-.5-.3s-.4-.3-.6-.4c-1.1-.8-2.1-1.6-3-2.4v-1.1c.1-4.3999 3.6-7.9999 8-7.9999z" fill="#d0c8c4" stroke="#4d4d4d" stroke-linejoin="round" stroke-miterlimit="10" stroke-width="2"/><path d="m22.8125 79.3033c.9.1 1.8.1 2.7.1 1 0 2-.1 3.1-.2l-1-11.3h-3.6z" fill="#82d5bf"/><g stroke="#4d4d4d" stroke-linejoin="round" stroke-miterlimit="10" stroke-width="2"><path d="m22.8125 79.3033c.9.1 1.8.1 2.7.1 1 0 2-.1 3.1-.2l-1-11.3h-3.6z"/><path d="m27.4124 69.8033h-3.5c-.3 0-.5-.2-.6-.5l-1.4-4.3c-.1-.3.2-.7.6-.7h6.3c.4 0 .6.3.6.7l-1.4 4.3c-.1.3-.3.5-.6.5z" fill="#82d5bf"/><path d="m20.7123 56.5033s-.2 4 1.3 7.1c0 0-4.5 2.7-5.8 6.6-3.2-4.6-1.8-12.2 4.5-13.7z" fill="#fff"/><path d="m30.4123 56.5033s.2 4-1.3 7.1c0 0 4.5 2.7 5.8 6.6 3.2-4.6 1.8-12.2-4.5-13.7z" fill="#fff"/><path d="m11.6123 71.0034v4.2999" stroke-linecap="round"/><path d="m39.6123 71.0034v4.2999" stroke-linecap="round"/></g><path d="m25.9126 12.3033c1.1 2.8 3.4 6.6 8.4 9.2 4.9 2.6 9.1 2.9 11.8 2.7" fill="#666"/><path d="m25.9126 12.3033c1.1 2.8 3.4 6.6 8.4 9.2 4.9 2.6 9.1 2.9 11.8 2.7" stroke="#4d4d4d" stroke-linecap="round" stroke-linejoin="round" stroke-miterlimit="10" stroke-width="2"/></svg>

<svg width="52" height="81" viewBox="0 0 52 81" fill="none" xmlns="http://www.w3.org/2000/svg">
<path d="M35.9125 38.8033C63.8125 32.9033 48.2125 -14.1967 17.1125 6.00332C-6.58747 0.103321 0.112528 34.5033 10.3125 37.2033C21.5125 40.2033 34.6125 39.1033 35.9125 38.8033Z" fill="#666666" stroke="#4D4D4D" stroke-width="2" stroke-miterlimit="10" stroke-linejoin="round"/>
<path d="M30.7124 61.5033V47.0033H20.4124V61.5033C20.4124 62.6033 19.5124 63.5033 18.4124 63.5033H16.7124C16.7124 66.9033 21.4124 76.3033 25.5124 76.3033C29.6124 76.3033 34.3124 66.9033 34.3124 63.5033H32.7124C31.6124 63.5033 30.7124 62.6033 30.7124 61.5033Z" fill="#FCC5AF" stroke="#4D4D4D" stroke-width="2" stroke-miterlimit="10" stroke-linejoin="round"/>
<path opacity="0.5" d="M29.6124 63.9033C28.1124 63.9033 21.8124 56.8033 21.8124 56.1033C21.9124 54.6033 21.7124 55.2033 21.7124 55.2033L29.6124 55.4033C29.6124 55.4033 29.8124 63.9033 29.6124 63.9033Z" fill="#F99F7A"/>
<path d="M8.11241 40.6033C10.2663 40.6033 12.0124 38.8572 12.0124 36.7033C12.0124 34.5494 10.2663 32.8033 8.11241 32.8033C5.9585 32.8033 4.2124 34.5494 4.2124 36.7033C4.2124 38.8572 5.9585 40.6033 8.11241 40.6033Z" fill="#FCC5AF" stroke="#4D4D4D" stroke-width="2" stroke-miterlimit="10" stroke-linejoin="round"/>
<path d="M42.9123 40.6033C45.0662 40.6033 46.8123 38.8572 46.8123 36.7033C46.8123 34.5494 45.0662 32.8033 42.9123 32.8033C40.7584 32.8033 39.0123 34.5494 39.0123 36.7033C39.0123 38.8572 40.7584 40.6033 42.9123 40.6033Z" fill="#FCC5AF" stroke="#4D4D4D" stroke-width="2" stroke-miterlimit="10" stroke-linejoin="round"/>
<path d="M26.5126 16.4033C21.6126 16.4033 16.6126 12.2033 11.7126 15.1033C7.51263 17.5033 8.01263 23.5033 8.01263 37.1033C8.01263 49.6033 17.3126 56.1033 25.0126 56.1033C33.8126 56.1033 43.0126 49.6033 43.0126 35.4033C43.0126 29.7033 43.2126 27.0033 43.0126 23.9033C38.7126 22.8033 31.4126 16.4033 26.5126 16.4033Z" fill="#FCC5AF" stroke="#4D4D4D" stroke-width="2" stroke-miterlimit="10" stroke-linejoin="round"/>
<path d="M24.3125 37.9033V39.6033C24.3125 40.3033 24.8125 40.9033 25.5125 40.9033H27.0125" stroke="#4D4D4D" stroke-width="2" stroke-miterlimit="10" stroke-linecap="round" stroke-linejoin="round"/>
<path d="M22.3125 46.8033C24.7125 48.0035 27.0125 48.0035 29.3125 46.8033" stroke="#4D4D4D" stroke-width="2" stroke-miterlimit="10" stroke-linecap="round" stroke-linejoin="round"/>
<path d="M19.3125 32.7033C20.1409 32.7033 20.8125 32.0317 20.8125 31.2033C20.8125 30.3748 20.1409 29.7032 19.3125 29.7032C18.4841 29.7032 17.8125 30.3748 17.8125 31.2033C17.8125 32.0317 18.4841 32.7033 19.3125 32.7033Z" fill="#4D4D4D"/>
<path d="M31.8125 32.7033C32.6409 32.7033 33.3125 32.0317 33.3125 31.2033C33.3125 30.3748 32.6409 29.7032 31.8125 29.7032C30.9841 29.7032 30.3125 30.3748 30.3125 31.2033C30.3125 32.0317 30.9841 32.7033 31.8125 32.7033Z" fill="#4D4D4D"/>
<path d="M45.8125 70.2033C45.8125 65.8033 42.2125 62.2034 37.8125 62.2034L30.0125 63.5034C30.0125 63.5034 25.6125 67.1033 25.6125 78.9033C25.6125 67.2033 20.9125 63.5034 20.9125 63.5034L13.3125 62.2034C8.9125 62.2034 5.3125 65.8033 5.3125 70.2033V71.5033C10.6125 76.4033 17.7125 79.3033 25.5125 79.3033C33.4125 79.3033 40.5125 76.3033 45.9125 71.3033V70.2033H45.8125Z" fill="#5C5C5C"/>
<path d="M45.8125 70.2033C45.8125 65.8033 42.2125 62.2034 37.8125 62.2034L30.0125 63.5034C30.0125 63.5034 25.6125 67.1033 25.6125 78.9033C25.6125 67.2033 20.9125 63.5034 20.9125 63.5034L13.3125 62.2034C8.9125 62.2034 5.3125 65.8033 5.3125 70.2033V71.5033C10.6125 76.4033 17.7125 79.3033 25.5125 79.3033C33.4125 79.3033 40.5125 76.3033 45.9125 71.3033V70.2033H45.8125Z" fill="white"/>
<path d="M45.8125 70.2033C45.8125 65.8033 42.2125 62.2034 37.8125 62.2034L30.0125 63.5034C30.0125 63.5034 25.6125 67.1033 25.6125 78.9033C25.6125 67.2033 20.9125 63.5034 20.9125 63.5034L13.3125 62.2034C8.9125 62.2034 5.3125 65.8033 5.3125 70.2033V71.5033C10.6125 76.4033 17.7125 79.3033 25.5125 79.3033C33.4125 79.3033 40.5125 76.3033 45.9125 71.3033V70.2033H45.8125Z" stroke="#4D4D4D" stroke-width="2" stroke-miterlimit="10" stroke-linejoin="round"/>
<path d="M37.8127 62.2034L35.2127 62.6034L31.5127 78.7033C35.1127 78.0033 38.4127 76.6033 41.3127 74.7033C41.4127 74.6033 41.6127 74.5033 41.7127 74.4033C41.9127 74.3033 42.0127 74.2033 42.2127 74.1033C42.4127 74.0033 42.6127 73.8033 42.8127 73.7033C43.9127 72.9033 44.9127 72.1033 45.8127 71.3033V70.2033C45.8127 65.8034 42.3127 62.2034 37.8127 62.2034Z" fill="#D0C8C4" stroke="#4D4D4D" stroke-width="2" stroke-miterlimit="10" stroke-linejoin="round"/>
<path d="M13.2124 62.2034L15.8124 62.6034L19.5124 78.7033C15.9124 78.0033 12.6124 76.6033 9.7124 74.7033C9.6124 74.6033 9.4124 74.5033 9.3124 74.4033C9.1124 74.3033 9.0124 74.2033 8.8124 74.1033C8.6124 74.0033 8.4124 73.8033 8.2124 73.7033C7.1124 72.9033 6.1124 72.1033 5.2124 71.3033V70.2033C5.3124 65.8034 8.8124 62.2034 13.2124 62.2034Z" fill="#D0C8C4" stroke="#4D4D4D" stroke-width="2" stroke-miterlimit="10" stroke-linejoin="round"/>
<path d="M22.8125 79.3033C23.7125 79.4033 24.6125 79.4033 25.5125 79.4033C26.5125 79.4033 27.5125 79.3033 28.6125 79.2033L27.6125 67.9033H24.0125L22.8125 79.3033Z" fill="#82D5BF"/>
<path d="M22.8125 79.3033C23.7125 79.4033 24.6125 79.4033 25.5125 79.4033C26.5125 79.4033 27.5125 79.3033 28.6125 79.2033L27.6125 67.9033H24.0125L22.8125 79.3033Z" stroke="#4D4D4D" stroke-width="2" stroke-miterlimit="10" stroke-linejoin="round"/>
<path d="M27.4124 69.8033H23.9124C23.6124 69.8033 23.4124 69.6033 23.3124 69.3033L21.9124 65.0033C21.8124 64.7033 22.1124 64.3033 22.5124 64.3033H28.8124C29.2124 64.3033 29.4124 64.6033 29.4124 65.0033L28.0124 69.3033C27.9124 69.6033 27.7124 69.8033 27.4124 69.8033Z" fill="#82D5BF" stroke="#4D4D4D" stroke-width="2" stroke-miterlimit="10" stroke-linejoin="round"/>
<path d="M20.7123 56.5033C20.7123 56.5033 20.5123 60.5033 22.0123 63.6033C22.0123 63.6033 17.5123 66.3033 16.2123 70.2033C13.0123 65.6033 14.4123 58.0033 20.7123 56.5033Z" fill="white" stroke="#4D4D4D" stroke-width="2" stroke-miterlimit="10" stroke-linejoin="round"/>
<path d="M30.4123 56.5033C30.4123 56.5033 30.6123 60.5033 29.1123 63.6033C29.1123 63.6033 33.6123 66.3033 34.9123 70.2033C38.1123 65.6033 36.7123 58.0033 30.4123 56.5033Z" fill="white" stroke="#4D4D4D" stroke-width="2" stroke-miterlimit="10" stroke-linejoin="round"/>
<path d="M11.6123 71.0034V75.3033" stroke="#4D4D4D" stroke-width="2" stroke-miterlimit="10" stroke-linecap="round" stroke-linejoin="round"/>
<path d="M39.6123 71.0034V75.3033" stroke="#4D4D4D" stroke-width="2" stroke-miterlimit="10" stroke-linecap="round" stroke-linejoin="round"/>
<path d="M25.9126 12.3033C27.0126 15.1033 29.3126 18.9033 34.3126 21.5033C39.2126 24.1033 43.4126 24.4033 46.1126 24.2033" fill="#666666"/>
<path d="M25.9126 12.3033C27.0126 15.1033 29.3126 18.9033 34.3126 21.5033C39.2126 24.1033 43.4126 24.4033 46.1126 24.2033" stroke="#4D4D4D" stroke-width="2" stroke-miterlimit="10" stroke-linecap="round" stroke-linejoin="round"/>
</svg>
